T: Johnny And Ali's March
M: 4/4
L: 1/8
K: Amix
|:AAAa fecA|BBBA BBBc|AAAa fecA|BBcB A4:|
|:Bccf ecBA|BBBA BBBA|Bccf ecBA|BBcB A4:|
|:AaAf ecBA|BBBA BBBc|AaAf ecBA|BBcB A4:|
feea efec|eeef cBBB|feea efec|AABA cAAA|
feea efec|eeef cBBB|feae feef|eafe cBBc|]
